!!! OTL: Berkowitz441
!!! Chapter: 1
!!! Section: IV
!!! Page: 110
!!! Mode: 
!!! Encoder: DJB
**kern
*staff1
*I"Piano
=1-
*clefG2
*k[f#c#]
*D:
*M2/4
4r
8r
8A/
=2
8d/L
8e/J
8f#/L
8g/J
=3
8g#/L
8a/J
8f#/L
8d/J
=4
8d#/L
8e/J
8c#/L
8A/J
=5
16d/LL
16c#/
16d/
16e/JJ
8f#/
16r
16e/
=6
8a/L
8b/J
8cc#\L
8dd\J
=7
8dd#\L
8ee\J
8cc#\L
8a\J
=8
8a#/L
8b/J
8g/L
8e/J
=9
4a/
8r
8a/
=10
8b-/L
8g/J
8e/L
8c#/J
=11
!!linebreak:original
8.d/L
16e/Jk
8fn/L
8f/J
=12
8fn/L
8d/J
8B/L
8G#/J
=13
4A/
8r
8A/
=14
16d/LL
16c#/
16d/
16e/JJ
16f#/LL
16e/
16f#/
16g/JJ
=15
8g#/L
8a/J
8f#/L
8d/J
=16
8a#/L
8b/J
8g/L
8e/J
=17
8c#/L
16B/L
16c#/JJ
8d/
8r
==
*-
